X:152
T: IN MEINES VATERS GARTEN
N: B0643
O: Europa, Mitteleuropa, Deutschland, Hochwald, Bruchweiler
R: Kinder -, Jahreszeiten - Lied, Winter, religioes
M: 2/4
L: 1/16
K: A
E2 | A2A2A2cB | A4A2
E2 | A2A2A2c2 | B4z2
E2 | d2d2d2d2 | c2e2c2
A2 | B2d2B2G2 | A2c2e2
E2 | d2d2d2d2 | c2e2c2
A2 | B2d2B2G2 | A4z2

